X:280
T: ICH GING BEI EITLER NACHT
N: E0157
O: Europa, Mitteleuropa, Deutschland
R: erzaehlendes Volks - Lied, Scherz, Schwank
M: 3/4
L: 1/8
K: D
DE | =F3EF2 | G3=FG2 | A6- | A2z2
A2 | G3AG2 | A3_BG2 | =F6- | F2z2
=FG | A4A2 | =c3_BA2 | G6 | E2A2
G2 | =F3ED2 | C3DE2 | D6- | D2z2

